X:1386
T:Om alla berg och backar
S:Efter Angeta Stolpe
Z:[[http://www.bluerose.karenlmyers.org/IncipitsGanglat11.html|Karen Myers (#2643)]]
Z:Upptecknad 11/2004
M:4/4
L:1/8
R:Gånglåt
K:F
C |: C>C A>G F>F F>D | C>C F>C A,2- A,C/C/ | D>D D>D B,>B, C>D | C6 z3/2 C/ |
B2 B>c AF- F>F | G>F G>A B2 c>A | F2 G>E C2 E>E | F6 z2 :|
(:musicend:)

(:music:)
